X:2724
T:Polska Nr 3
B:Traditioner af Swenska Folk-Dansar 1sta häftet 1814
B:http://www.smus.se/earkiv/fmk/browselarge.php?lang=sw&katalogid=MMD+30&bildnr=00002
M:3/4
Z:2012-08-02 Per Oldberg
L:1/8
O:Västergötland
R:Polska
V:1
V:2 bass
V:3 bass merge
K:Am
V:1
AB2cA^G | AB2cA^G |  A>^GA>Bc>(d | e)>(^de)>(fe)>(c |
V:2
CD/>^C/ DE=CB, | CD/>^C/ DE=CB, | CCCCA,A, | [^G,6B,6] | 
V:3
A,A,2A,A,A, | A,A,2A,A,A, | A,A,A,A,F,F, | E,6 | 
V:1
A)B2cA^G | AB2cA^G | A>B c2 c>d | [^G2e2][^G2e2]z2 ::
V:2
CD/>^C/ DE=CB, | CD/>^C/ DE=CB, | C4 A,A, | B,B,B,2z2 :: 
V:3
A,A,2A,A,A, | A,A,2A,A,A, | A,4 F,F, | E,E,E,2z2 :: 
V:1
e2g2g2- | g>(^fg)>(ag)>(=f | e)>d c2 c>d | e>(^de)>(fe)>(=d | c)>(Bc)>(AB)(^G | A4)z2 :| 
V:2
C,EE4 | D6 | GGEECC | B,6 | EECCDD | CCA,,2z2 :|
V:3
C,CC4 | B,6 | CCCCA,A, | ^G,6 |  A,A,A,A,E,E, | A,A,A,,2 z2 :|
(:musicend:)
(:music:)
